assets/icons/scanner-filled.svg

<?xml version="1.0" encoding="UTF-8" standalone="no"?>
<svg
   viewBox="0 0 24 24"
   height="24"
   id="svg7384"
   version="1.1"
   width="24"
   sodipodi:docname="scanner-filled.svg"
   inkscape:version="1.2 (1:1.2.1+202207142221+cd75a1ee6d)"
   xmlns:inkscape="http://www.inkscape.org/namespaces/inkscape"
   xmlns:sodipodi="http://sodipodi.sourceforge.net/DTD/sodipodi-0.dtd"
   xmlns="http://www.w3.org/2000/svg"
   xmlns:svg="http://www.w3.org/2000/svg"
   xmlns:rdf="http://www.w3.org/1999/02/22-rdf-syntax-ns#"
   xmlns:cc="http://creativecommons.org/ns#"
   xmlns:dc="http://purl.org/dc/elements/1.1/">
  <sodipodi:namedview
     id="namedview24"
     pagecolor="#ffffff"
     bordercolor="#666666"
     borderopacity="1.0"
     inkscape:pageshadow="2"
     inkscape:pageopacity="0.0"
     inkscape:pagecheckerboard="0"
     showgrid="false"
     inkscape:zoom="1"
     inkscape:cx="-91.5"
     inkscape:cy="-120.5"
     inkscape:window-width="1920"
     inkscape:window-height="1016"
     inkscape:window-x="0"
     inkscape:window-y="0"
     inkscape:window-maximized="1"
     inkscape:current-layer="svg7384"
     width="24px"
     inkscape:showpageshadow="2"
     inkscape:deskcolor="#d1d1d1">
    <inkscape:grid
       type="xygrid"
       id="grid14" />
    <inkscape:grid
       type="xygrid"
       id="grid831"
       dotted="true"
       spacingx="0.5"
       spacingy="0.5"
       empspacing="10" />
  </sodipodi:namedview>
  <metadata
     id="metadata20854">
    <rdf:RDF>
      <cc:Work
         rdf:about="">
        <dc:format>image/svg+xml</dc:format>
        <dc:type
           rdf:resource="http://purl.org/dc/dcmitype/StillImage" />
      </cc:Work>
    </rdf:RDF>
  </metadata>
  <defs
     id="defs7386">
    <linearGradient
       id="linearGradient5606"
       inkscape:swatch="solid">
      <stop
         id="stop5608"
         offset="0"
         style="stop-color:#000000;stop-opacity:1;" />
    </linearGradient>
    <linearGradient
       id="linearGradient4526"
       inkscape:swatch="solid">
      <stop
         id="stop4528"
         offset="0"
         style="stop-color:#ffffff;stop-opacity:1;" />
    </linearGradient>
    <linearGradient
       id="linearGradient3600-4"
       inkscape:swatch="gradient">
      <stop
         id="stop3602-7"
         offset="0"
         style="stop-color:#f4f4f4;stop-opacity:1" />
      <stop
         id="stop3604-6"
         offset="1"
         style="stop-color:#dbdbdb;stop-opacity:1" />
    </linearGradient>
  </defs>
  <path
     id="path866"
     style="color:#000000;fill:#808080;fill-opacity:1"
     d="M 6.7871094 2 C 6.1101671 2.00559 5.5365044 2.0481536 5.0273438 2.3027344 C 4.687903 2.4724546 4.3973375 2.76517 4.2304688 3.140625 C 4.0635995 3.51608 4 3.9583364 4 4.5 L 4 11 L 5 11 L 19 11 L 20 11 L 20 4.5 C 20 3.9583364 19.9364 3.51608 19.769531 3.140625 C 19.602662 2.76517 19.312098 2.4724546 18.972656 2.3027344 C 18.463497 2.0481538 17.889832 2.00559 17.212891 2 C 16.987242 1.99814 16.75 2 16.5 2 L 7.5 2 C 7.2500013 2 7.0127565 1.99814 6.7871094 2 z M 9.4003906 4 L 10.599609 4 L 12.759766 9.4003906 L 13 9.4003906 L 13 10 L 11.800781 10 L 11.199219 10 L 11.199219 9.4003906 L 11.560547 9.4003906 L 11.080078 8.1992188 L 8.9199219 8.1992188 L 8.4394531 9.4003906 L 8.8007812 9.4003906 L 8.8007812 10 L 8.1992188 10 L 7 10 L 7 9.4003906 L 7.2402344 9.4003906 L 9.4003906 4 z M 10 5.4980469 L 9.1601562 7.5996094 L 10.839844 7.5996094 L 10 5.4980469 z M 4 12 L 4 19.5 C 4 20.041661 4.0635993 20.483918 4.2304688 20.859375 C 4.3973375 21.234832 4.687903 21.527544 5.0273438 21.697266 C 5.706225 22.036703 6.500006 22 7.5 22 L 16.5 22 C 17.499994 22 18.293776 22.036707 18.972656 21.697266 C 19.312098 21.527544 19.602662 21.234832 19.769531 20.859375 C 19.9364 20.483918 20 20.041661 20 19.5 L 20 12 L 19 12 L 5 12 L 4 12 z M 7 14.25 L 17 14.25 L 17 14.75 L 7 14.75 L 7 14.25 z M 7 16.25 L 17 16.25 L 17 16.75 L 7 16.75 L 7 16.25 z M 7 18.25 L 17 18.25 L 17 18.75 L 7 18.75 L 7 18.25 z " />
</svg>

<svg height="24" width="24" xmlns="http://www.w3.org/2000/svg"><path style="color:#000;fill:gray;fill-opacity:1" d="M6.787 2c-.677.006-1.25.048-1.76.303-.34.17-.63.462-.797.838C4.064 3.516 4 3.958 4 4.5V11h16V4.5c0-.542-.064-.984-.23-1.36a1.72 1.72 0 0 0-.797-.837c-.51-.255-1.083-.297-1.76-.303-.226-.002-.463 0-.713 0h-9c-.25 0-.487-.002-.713 0zM9.4 4h1.2l2.16 5.4H13v.6h-1.8v-.6h.36l-.48-1.2H8.92l-.48 1.2h.36v.6H7v-.6h.24L9.4 4zm.6 1.498L9.16 7.6h1.68L10 5.498zM4 12v7.5c0 .542.064.984.23 1.36.167.375.458.668.797.837.68.34 1.473.303 2.473.303h9c1 0 1.794.037 2.473-.303.34-.17.63-.462.797-.838.166-.375.23-.817.23-1.359V12H4zm3 2.25h10v.5H7v-.5zm0 2h10v.5H7v-.5zm0 2h10v.5H7v-.5z"/></svg>
